**kern	**silbe	**harmony	**phrase	**leadinstrument	**rhyme	**timestamp	**harte
*ICvox	*	*M4/4	*	*	*	*	*M4/4
*VRlead	*	*	*	*	*	*	*
*Hstimme	*	*	*	*	*	*	*
*D:	*	*D:	*	*	*	*	*D:
*M4/4	*	*	*	*	*	*	*
*clefG2	*	*	*	*	*	*	*
r;	.	1r;	.	r	.	0	N.C.
r;	.	1r;	.	r	.	0.418	N.C.
=1	=1	=1	=1	=1	=1	=1	=1
*>Letter>A	*>Letter>A	*>Letter>A	*>Letter>A	*>Letter>A	*>Letter>A	*>Letter>A	*>Letter>A
*>Label>Intro	*>Label>Intro	*>Label>Intro	*>Label>Intro	*>Label>Intro	*>Label>Intro	*>Label>Intro	*>Label>Intro
4r	.	1N	newline	voice	.	6.455	N.C.
8a	Grab	.	.	.	.	.	.
8a	your	.	.	.	.	.	.
4a	board	.	.	.	.	.	.
8a	and	.	.	.	.	.	.
8a	go	.	.	.	.	.	.
=2	=2	=2	=2	=2	=2	=2	=2
4b	side-	1N	.	voice	.	8.306	N.C.
4a	-walk	.	.	.	.	.	.
8f	sur-	.	.	.	.	.	.
8f	-fin'	.	.	.	.	.	.
8e	with	.	.	.	.	.	.
[8d	me	.	.	.	.	.	.
=3	=3	=3	=3	=3	=3	=3	=3
1d_	_	1DM	.	voice	.	10.158	D:maj
=4	=4	=4	=4	=4	=4	=4	=4
1d]	_	1DM	.	voice	.	12.009	D:maj
=5	=5	=5	=5	=5	=5	=5	=5
*>Letter>B	*>Letter>B	*>Letter>B	*>Letter>B	*>Letter>B	*>Letter>B	*>Letter>B	*>Letter>B
*>Label>Verse	*>Label>Verse	*>Label>Verse	*>Label>Verse	*>Label>Verse	*>Label>Verse	*>Label>Verse	*>Label>Verse
8r	.	1DM	newline	voice	.	13.86	D:maj
8D	Don't	.	.	.	.	.	.
8D	be	.	.	.	.	.	.
8D	a-	.	.	.	.	.	.
8AA	-fraid	.	.	.	.	.	.
8AA	to	.	.	.	.	.	.
8BB	try	.	.	.	.	.	.
8C#	the	.	.	.	.	.	.
=6	=6	=6	=6	=6	=6	=6	=6
4D	new-	1DM	.	voice	.	15.607	D:maj
4D	-est	.	.	.	.	.	.
8E	sport	.	.	.	.	.	.
4F#	a-	.	.	.	.	.	.
[8A	-round	.	.	.	A	.	.
=7	=7	=7	=7	=7	=7	=7	=7
1A_	_	1DM	.	voice	.	17.354	D:maj
=8	=8	=8	=8	=8	=8	=8	=8
2.A]	_	1DM	.	voice	.	19.101	D:maj
4r	.	.	.	.	.	.	.
=9	=9	=9	=9	=9	=9	=9	=9
*clefG2	*	*	*	*	*	*	*
8r	.	1AM	newline	voice	.	20.848	A:maj
8e	It's	.	.	.	.	.	.
8e	catch-	.	.	.	.	.	.
8f#	-ing	.	.	.	.	.	.
4e	on	.	.	.	.	.	.
4f#	in	.	.	.	.	.	.
=10	=10	=10	=10	=10	=10	=10	=10
8a	e-	1AM	.	voice	.	22.587	A:maj
8a	-ve-	.	.	.	.	.	.
8b	-ry	.	.	.	.	.	.
4a	ci-	.	.	.	.	.	.
8a	-ty	.	.	.	.	.	.
4g	and	.	.	.	.	.	.
=11	=11	=11	=11	=11	=11	=11	=11
4f#	town	1DM	.	voice	A	24.326	D:maj
[4a	_	.	.	.	.	.	.
8a]	_	.	.	.	.	.	.
8g	_	.	.	.	.	.	.
8f#	_	.	.	.	.	.	.
8g	_	.	.	.	.	.	.
=12	=12	=12	=12	=12	=12	=12	=12
2a	_	1DM	.	voice	.	26.065	D:maj
2r	.	.	.	.	.	.	.
=13	=13	=13	=13	=13	=13	=13	=13
4r	.	1GM	newline	voice	.	27.804	G:maj
8B	You	.	.	.	.	.	.
8B	can	.	.	.	.	.	.
8d	do	.	.	.	.	.	.
8d	the	.	.	.	.	.	.
8e	tricks	.	.	.	.	.	.
8d	the	.	.	.	.	.	.
=14	=14	=14	=14	=14	=14	=14	=14
8f	sur-	1GM	.	voice	.	29.55	G:maj
4e	-fers	.	.	.	.	.	.
4d	do	.	.	.	B	.	.
8A	Just	.	.	.	.	.	.
8B	try	.	.	.	.	.	.
8A	a	.	.	.	.	.	.
=15	=15	=15	=15	=15	=15	=15	=15
4r	.	1DM	.	voice	.	31.295	D:maj
8c	Qua-	.	.	.	.	.	.
8B	-si-	.	.	.	.	.	.
8A	-mo-	.	.	.	.	.	.
8A	-do	.	.	.	.	.	.
8B	or	.	.	.	.	.	.
8A	the	.	.	.	.	.	.
=16	=16	=16	=16	=16	=16	=16	=16
8F#	Cof-	1DM	.	voice	.	33.041	D:maj
8c	-fin	.	.	.	.	.	.
8B	_	.	.	.	.	.	.
8A	too	.	.	.	B	.	.
8r	.	.	.	.	.	.	.
*clefF4	*	*	*	*	*	*	*
8D	Why	.	.	.	.	.	.
8C#	don't	.	.	.	.	.	.
8BB	you	.	.	.	.	.	.
=17	=17	=17	=17	=17	=17	=17	=17
8AA	_	2AM	newline	voice	.	34.786	A:maj
*clefG2	*	*	*	*	*	*	*
8r	.	.	.	.	.	.	.
8a	Grab	.	.	.	.	.	.
8a	your	.	.	.	.	.	.
4a	board	2FM	.	voice	.	35.677	F:maj
8a	and	.	.	.	.	.	.
8a	go	.	.	.	.	.	.
=18	=18	=18	=18	=18	=18	=18	=18
4b	side-	2GM	.	voice	.	36.567	G:maj
4a	-walk	.	.	.	.	.	.
8f	sur-	2AM	.	voice	.	37.457	A:maj
8f	-fin'	.	.	.	.	.	.
8e	with	.	.	.	.	.	.
[8d	me	.	.	.	.	.	.
=19	=19	=19	=19	=19	=19	=19	=19
1d_	_	1DM	.	voice	.	38.347	D:maj
=20	=20	=20	=20	=20	=20	=20	=20
2d]	_	1AM	.	voice	.	40.128	A:maj
2r	.	.	.	.	.	.	.
=21	=21	=21	=21	=21	=21	=21	=21
*>Letter>B2	*>Letter>B2	*>Letter>B2	*>Letter>B2	*>Letter>B2	*>Letter>B2	*>Letter>B2	*>Letter>B2
*>Label>Verse	*>Label>Verse	*>Label>Verse	*>Label>Verse	*>Label>Verse	*>Label>Verse	*>Label>Verse	*>Label>Verse
8r	.	1DM	newline	voice	.	41.908	D:maj
8D	You'll	.	.	.	.	.	.
8D	pro'-	.	.	.	.	.	.
8D	-bly	.	.	.	.	.	.
8AA	wipe	.	.	.	.	.	.
8AA	out	.	.	.	.	.	.
8BB	when	.	.	.	.	.	.
8C#	you	.	.	.	.	.	.
=22	=22	=22	=22	=22	=22	=22	=22
4D	first	1DM	.	voice	.	43.658	D:maj
8D	try	.	.	.	.	.	.
8D	to	.	.	.	.	.	.
8E	shoot	.	.	.	.	.	.
4F#	the	.	.	.	.	.	.
[8A	curve	.	.	.	C	.	.
=23	=23	=23	=23	=23	=23	=23	=23
1A_	_	1DM	.	voice	.	45.409	D:maj
=24	=24	=24	=24	=24	=24	=24	=24
2A]	_	1DM	.	voice	.	47.159	D:maj
2r	.	.	.	.	.	.	.
=25	=25	=25	=25	=25	=25	=25	=25
*clefG2	*	*	*	*	*	*	*
4r	.	1AM	newline	voice	.	48.909	A:maj
8e	Ta-	.	.	.	.	.	.
8f#	-king	.	.	.	.	.	.
4e	gas	.	.	.	.	.	.
8f#	in	.	.	.	.	.	.
8f#	a	.	.	.	.	.	.
=26	=26	=26	=26	=26	=26	=26	=26
8a	bush	1AM	.	voice	.	50.659	A:maj
8r	.	.	.	.	.	.	.
8a	takes	.	.	.	.	.	.
8b	a	.	.	.	.	.	.
8a	lot	.	.	.	.	.	.
4g	of	.	.	.	.	.	.
[8f#	nerve	.	.	.	C	.	.
=27	=27	=27	=27	=27	=27	=27	=27
8f#]	_	1DM	.	voice	.	52.408	D:maj
2a	_	.	.	.	.	.	.
8g	_	.	.	.	.	.	.
8f#	_	.	.	.	.	.	.
8g	_	.	.	.	.	.	.
=28	=28	=28	=28	=28	=28	=28	=28
2a	_	1DM	.	voice	.	54.157	D:maj
4r	.	.	.	.	.	.	.
8r	.	.	.	.	.	.	.
8G	Those	.	.	.	.	.	.
=29	=29	=29	=29	=29	=29	=29	=29
4G	hop-	1GM	newline	voice	.	55.907	G:maj
4B	-scotch	.	.	.	.	.	.
8d	pole-	.	.	.	.	.	.
8d	-dads	.	.	.	.	.	.
8e	and	.	.	.	.	.	.
8d	pe-	.	.	.	.	.	.
=30	=30	=30	=30	=30	=30	=30	=30
8f	-des-	1GM	.	voice	.	57.646	G:maj
8f	-tri-	.	.	.	.	.	.
8e	-ans	.	.	.	.	.	.
4d	too	.	.	.	A	.	.
8A	will	.	.	.	.	.	.
8B	bug	.	.	.	.	.	.
8A	you	.	.	.	A	.	.
=31	=31	=31	=31	=31	=31	=31	=31
8r	.	1DM	.	voice	.	59.385	D:maj
8c	Shout	.	.	.	.	.	.
8c	\\\"Co-	.	.	.	.	.	.
8B	-wa-	.	.	.	.	.	.
8A	-bun-	.	.	.	.	.	.
8A	-ga\\\"	.	.	.	.	.	.
8B	now	.	.	.	.	.	.
8A	and	.	.	.	.	.	.
=32	=32	=32	=32	=32	=32	=32	=32
8F#	skate	1DM	.	voice	.	61.124	D:maj
8c	right	.	.	.	.	.	.
8B	on	.	.	.	.	.	.
8A	through	.	.	.	A	.	.
8r	.	.	.	.	.	.	.
*clefF4	*	*	*	*	*	*	*
8D	Why	.	.	.	.	.	.
8C#	don't	.	.	.	.	.	.
8BB	you	.	.	.	.	.	.
=33	=33	=33	=33	=33	=33	=33	=33
8AA	_	2AM	newline	voice	.	62.862	A:maj
*clefG2	*	*	*	*	*	*	*
8r	.	.	.	.	.	.	.
8a	Grab	.	.	.	.	.	.
8a	your	.	.	.	.	.	.
4a	board	2FM	.	voice	.	63.759	F:maj
8a	and	.	.	.	.	.	.
8a	go	.	.	.	.	.	.
=34	=34	=34	=34	=34	=34	=34	=34
4b	side-	2GM	.	voice	.	64.655	G:maj
4a	-walk	.	.	.	.	.	.
8f	sur-	2AM	.	voice	.	65.551	A:maj
8f	-fin'	.	.	.	.	.	.
8e	with	.	.	.	.	.	.
[8d	me	.	.	.	.	.	.
=35	=35	=35	=35	=35	=35	=35	=35
1d]	_	1DM	.	voice	.	66.448	D:maj
=36	=36	=36	=36	=36	=36	=36	=36
*E-:	*	*	*	*	*	*	*
2e-	_	1E-Mm	.	voice	.	68.24	E-:7
2r	.	.	.	.	.	.	.
=37	=37	=37	=37	=37	=37	=37	=37
*>Letter>C	*>Letter>C	*>Letter>C	*>Letter>C	*>Letter>C	*>Letter>C	*>Letter>C	*>Letter>C
*>Label>Solo	*>Label>Solo	*>Label>Solo	*>Label>Solo	*>Label>Solo	*>Label>Solo	*>Label>Solo	*>Label>Solo
*E-:	*	*E-:	*E-:	*E-:	*	*E-:	*E-:
1r	.	1E-M	newline	saxophone	.	70.033	E-:maj
=38	=38	=38	=38	=38	=38	=38	=38
1r	.	1E-M	.	saxophone	.	71.785	E-:maj
=39	=39	=39	=39	=39	=39	=39	=39
1r	.	1E-M	.	saxophone	.	73.538	E-:maj
=40	=40	=40	=40	=40	=40	=40	=40
1r	.	1E-M	.	saxophone	.	75.29	E-:maj
=41	=41	=41	=41	=41	=41	=41	=41
1r	.	1B-M	newline	horn	.	77.043	B-:maj
=42	=42	=42	=42	=42	=42	=42	=42
1r	.	1B-M	.	horn	.	78.787	B-:maj
=43	=43	=43	=43	=43	=43	=43	=43
1r	.	1E-M	.	horn	.	80.531	E-:maj
=44	=44	=44	=44	=44	=44	=44	=44
1r	.	1E-M	.	horn	.	82.275	E-:maj
=45	=45	=45	=45	=45	=45	=45	=45
*>Letter>B3	*>Letter>B3	*>Letter>B3	*>Letter>B3	*>Letter>B3	*>Letter>B3	*>Letter>B3	*>Letter>B3
*>Label>Verse	*>Label>Verse	*>Label>Verse	*>Label>Verse	*>Label>Verse	*>Label>Verse	*>Label>Verse	*>Label>Verse
4r	.	1A-M	newline	voice	.	84.019	A-:maj
8c	You	.	.	.	.	.	.
8c	can	.	.	.	.	.	.
8e-	do	.	.	.	.	.	.
8e-	the	.	.	.	.	.	.
8f	tricks	.	.	.	.	.	.
8e-	the	.	.	.	.	.	.
=46	=46	=46	=46	=46	=46	=46	=46
8g-	sur-	1A-M	.	voice	.	85.78	A-:maj
4f	-fers	.	.	.	.	.	.
4e-	do	.	.	.	A	.	.
8B-	Just	.	.	.	.	.	.
8c	try	.	.	.	.	.	.
8B-	a	.	.	.	.	.	.
=47	=47	=47	=47	=47	=47	=47	=47
4r	.	1E-M	.	voice	.	87.54	E-:maj
8d-	Qua-	.	.	.	.	.	.
8c	-si-	.	.	.	.	.	.
8B-	-mo-	.	.	.	.	.	.
8B-	-do	.	.	.	.	.	.
8c	or	.	.	.	.	.	.
8B-	the	.	.	.	.	.	.
=48	=48	=48	=48	=48	=48	=48	=48
8G	Cof-	1E-M	.	voice	.	89.301	E-:maj
8d-	-fin	.	.	.	.	.	.
8c	_	.	.	.	.	.	.
8B-	too	.	.	.	A	.	.
8r	.	.	.	.	.	.	.
*clefF4	*	*	*	*	*	*	*
8E-	Why	.	.	.	.	.	.
8D	don't	.	.	.	.	.	.
8C	you	.	.	.	.	.	.
=49	=49	=49	=49	=49	=49	=49	=49
8BB-	_	2B-M	newline	voice	.	91.062	B-:maj
*clefG2	*	*	*	*	*	*	*
8r	.	.	.	.	.	.	.
8b-	Grab	.	.	.	.	.	.
8b-	your	.	.	.	.	.	.
4b-	board	2G-M	.	voice	.	91.949	G-:maj
8b-	and	.	.	.	.	.	.
8b-	go	.	.	.	.	.	.
=50	=50	=50	=50	=50	=50	=50	=50
4cc	side-	2A-M	.	voice	.	92.837	A-:maj
4b-	-walk	.	.	.	.	.	.
8g-	sur-	2B-M	.	voice	.	93.725	B-:maj
8g-	-fin'	.	.	.	.	.	.
8f	with	.	.	.	.	.	.
[8e-	me	.	.	.	.	.	.
=51	=51	=51	=51	=51	=51	=51	=51
1e-_	_	1E-M	.	voice	.	94.612	E-:maj
=52	=52	=52	=52	=52	=52	=52	=52
2e-]	_	1E-M	.	voice	.	96.388	E-:maj
2r	.	.	.	.	.	.	.
=53	=53	=53	=53	=53	=53	=53	=53
*>Letter>B4	*>Letter>B4	*>Letter>B4	*>Letter>B4	*>Letter>B4	*>Letter>B4	*>Letter>B4	*>Letter>B4
*>Label>Verse	*>Label>Verse	*>Label>Verse	*>Label>Verse	*>Label>Verse	*>Label>Verse	*>Label>Verse	*>Label>Verse
8r	.	1E-M	newline	voice	.	98.163	E-:maj
8E-	So	.	.	.	.	.	.
8E-	get	.	.	.	.	.	.
8E-	your	.	.	.	.	.	.
8BB-	girl	.	.	.	.	.	.
8BB-	and	.	.	.	.	.	.
8C	take	.	.	.	.	.	.
8D	her	.	.	.	.	.	.
=54	=54	=54	=54	=54	=54	=54	=54
4E-	tan-	1E-M	.	voice	.	99.915	E-:maj
4E-	-dem	.	.	.	.	.	.
8F	down	.	.	.	.	.	.
4G	the	.	.	.	.	.	.
[8B-	street	.	.	.	D	.	.
=55	=55	=55	=55	=55	=55	=55	=55
1B-_	_	1E-M	.	voice	.	101.667	E-:maj
=56	=56	=56	=56	=56	=56	=56	=56
2B-]	_	1E-M	.	voice	.	103.419	E-:maj
2r	.	.	.	.	.	.	.
=57	=57	=57	=57	=57	=57	=57	=57
*clefG2	*	*	*	*	*	*	*
4r	.	1B-M	newline	voice	.	105.171	B-:maj
8f	Then	.	.	.	.	.	.
8g	she'll	.	.	.	.	.	.
4f	know	.	.	.	.	.	.
8g	you're	.	.	.	.	.	.
8g	an	.	.	.	.	.	.
=58	=58	=58	=58	=58	=58	=58	=58
4b-	as-	1B-M	.	voice	.	106.924	B-:maj
4cc	-phalt	.	.	.	.	.	.
8b-	a-	.	.	.	.	.	.
4a-	-th-	.	.	.	.	.	.
[8g	-lete	.	.	.	D	.	.
=59	=59	=59	=59	=59	=59	=59	=59
8g]	_	1E-M	.	voice	.	108.676	E-:maj
2b-	_	.	.	.	.	.	.
8a-	_	.	.	.	.	.	.
8g	_	.	.	.	.	.	.
8a-	_	.	.	.	.	.	.
=60	=60	=60	=60	=60	=60	=60	=60
2.b-	_	1E-Mm	.	voice	.	110.429	E-:7
8r	.	.	.	.	.	.	.
8A-	A	.	.	.	.	.	.
=61	=61	=61	=61	=61	=61	=61	=61
4A-	down-	1A-M	newline	voice	.	112.182	A-:maj
4c	-hill	.	.	.	.	.	.
4e-	grade,	.	.	.	.	.	.
8f	man,	.	.	.	.	.	.
8e-	will	.	.	.	.	.	.
=62	=62	=62	=62	=62	=62	=62	=62
8g-	give	1A-M	.	voice	.	113.923	A-:maj
8g-	you	.	.	.	.	.	.
8f	a	.	.	.	.	.	.
8e-	kick	.	.	.	E	.	.
8r	.	.	.	.	.	.	.
8B-	But	.	.	.	.	.	.
8c	if	.	.	.	.	.	.
8B-	the	.	.	.	.	.	.
=63	=63	=63	=63	=63	=63	=63	=63
8d-	side-	1E-M	.	voice	.	115.665	E-:maj
4c	-walk's	.	.	.	.	.	.
8B-	cracked,	.	.	.	.	.	.
8r	.	.	.	.	.	.	.
8B-	you	.	.	.	.	.	.
8c	bet-	.	.	.	.	.	.
8B-	-ter	.	.	.	.	.	.
=64	=64	=64	=64	=64	=64	=64	=64
8G	pull	1E-M	.	voice	.	117.406	E-:maj
8d-	out	.	.	.	.	.	.
8c	_	.	.	.	.	.	.
8B-	quick	.	.	.	E	.	.
8r	.	.	.	.	.	.	.
8E-	Why	.	.	.	.	.	.
8D	don't	.	.	.	.	.	.
8C	you	.	.	.	.	.	.
=65	=65	=65	=65	=65	=65	=65	=65
8BB-	_	2B-M	newline	voice	.	119.148	B-:maj
8r	.	.	.	.	.	.	.
8b-	Grab	.	.	.	.	.	.
8b-	your	.	.	.	.	.	.
4b-	board	2G-M	.	voice	.	120.037	G-:maj
8b-	and	.	.	.	.	.	.
8b-	go	.	.	.	.	.	.
=66	=66	=66	=66	=66	=66	=66	=66
4cc	side-	2A-M	.	voice	.	120.926	A-:maj
4b-	-walk	.	.	.	.	.	.
8g-	sur-	2B-M	.	voice	.	121.816	B-:maj
8g-	-fin'	.	.	.	.	.	.
8f	with	.	.	.	.	.	.
8e-	me	.	.	.	.	.	.
=67	=67	=67	=67	=67	=67	=67	=67
8b-	Skate-	1E-M	.	voice	.	122.705	E-:maj
8b-	-board	.	.	.	.	.	.
8b-	with	.	.	.	.	.	.
[8ee-	me	.	.	.	.	.	.
8ee-]	_	.	.	.	.	.	.
8g	Why	.	.	.	.	.	.
8a-	don't	.	.	.	.	.	.
8a	you	.	.	.	.	.	.
=68	=68	=68	=68	=68	=68	=68	=68
8b-	skate-	1E-M	.	voice	.	124.484	E-:maj
8b-	-board	.	.	.	.	.	.
8b-	with	.	.	.	.	.	.
[8ee-	me?	.	.	.	.	.	.
4ee-]	_	.	.	.	.	.	.
4r	.	.	.	.	.	.	.
=69	=69	=69	=69	=69	=69	=69	=69
*>Letter>D	*>Letter>D	*>Letter>D	*>Letter>D	*>Letter>D	*>Letter>D	*>Letter>D	*>Letter>D
*>Label>Outro	*>Label>Outro	*>Label>Outro	*>Label>Outro	*>Label>Outro	*>Label>Outro	*>Label>Outro	*>Label>Outro
4r	.	2B-M	newline	voice	.	126.263	B-:maj
8b-	Grab	.	.	.	.	.	.
8b-	your	.	.	.	.	.	.
4b-	board	2G-M	.	voice	.	127.136	G-:maj
8b-	and	.	.	.	.	.	.
8b-	go	.	.	.	.	.	.
=70	=70	=70	=70	=70	=70	=70	=70
4cc	side-	2A-M	.	voice	.	128.009	A-:maj
4b-	-walk	.	.	.	.	.	.
8g-	sur-	2B-M	.	voice	.	128.883	B-:maj
8g-	-fin'	.	.	.	.	.	.
8f	with	.	.	.	.	.	.
8e-	me	.	.	.	.	.	.
=71	=71	=71	=71	=71	=71	=71	=71
8b-	Skate-	1E-M	.	voice	.	129.756	E-:maj
8b-	-board	.	.	.	.	.	.
8b-	with	.	.	.	.	.	.
[8ee-	me	.	.	.	.	.	.
8ee-]	_	.	.	.	.	.	.
8g	Why	.	.	.	.	.	.
8a-	don't	.	.	.	.	.	.
8a	you	.	.	.	.	.	.
=72	=72	=72	=72	=72	=72	=72	=72
8b-	skate-	1E-M	.	voice	.	131.503	E-:maj
8b-	-board	.	.	.	.	.	.
8b-	with	.	.	.	.	.	.
[8ee-	me?	.	.	.	.	.	.
8ee-]	_	.	.	.	.	.	.
8cc	_	.	.	.	.	.	.
8b-	_	.	.	.	.	.	.
8r	.	.	.	.	.	.	.
=73	=73	=73	=73	=73	=73	=73	=73
4r	.	2B-M	newline	voice	.	133.249	B-:maj
8b-	Grab	.	.	.	.	.	.
8b-	your	.	.	.	.	.	.
4b-	board	2G-M	.	voice	.	134.122	G-:maj
8b-	and	.	.	.	.	.	.
8b-	go	.	.	.	.	.	.
=74	=74	=74	=74	=74	=74	=74	=74
4cc	side-	2A-M	.	voice	.	134.994	A-:maj
4b-	-walk	.	.	.	.	.	.
8g-	sur-	2B-M	.	voice	.	135.867	B-:maj
8g-	-fin'	.	.	.	.	.	.
8f	with	.	.	.	.	.	.
8e-	me	.	.	.	.	.	.
=75	=75	=75	=75	=75	=75	=75	=75
8b-	Skate-	1E-M	.	voice	.	136.739	E-:maj
8b-	-board	.	.	.	.	.	.
8b-	with	.	.	.	.	.	.
[8ee-	me	.	.	.	.	.	.
8ee-]	_	.	.	.	.	.	.
8g	Why	.	.	.	.	.	.
8a-	don't	.	.	.	.	.	.
8a	you	.	.	.	.	.	.
=76	=76	=76	=76	=76	=76	=76	=76
8b-	skate-	1E-M	.	voice	.	138.484	E-:maj
8b-	-board	.	.	.	.	.	.
8b-	with	.	.	.	.	.	.
4ee-	me?	.	.	.	.	.	.
8cc	_	.	.	.	.	.	.
4b-	_	.	.	.	.	.	.
=77	=77	=77	=77	=77	=77	=77	=77
4r	.	2B-M	newline	voice	.	140.229	B-:maj
8b-	Grab	.	.	.	.	.	.
8b-	your	.	.	.	.	.	.
4b-	board	2G-M	.	voice	.	141.102	G-:maj
8b-	and	.	.	.	.	.	.
8b-	go	.	.	.	.	.	.
=78	=78	=78	=78	=78	=78	=78	=78
4cc	side-	2A-M	.	voice	.	141.975	A-:maj
4b-	-walk	.	.	.	.	.	.
8g-	sur-	2B-M	.	voice	.	142.848	B-:maj
8g-	-fin'	.	.	.	.	.	.
8f	with	.	.	.	.	.	.
8e-	me	.	.	.	.	.	.
=79	=79	=79	=79	=79	=79	=79	=79
8b-	Skate-	1E-M	.	voice	.	143.72	E-:maj
8b-	-board	.	.	.	.	.	.
8b-	with	.	.	.	.	.	.
[8ee-	me	.	.	.	.	.	.
8ee-]	_	.	.	.	.	.	.
8g	Why	.	.	.	.	.	.
8a-	don't	.	.	.	.	.	.
8a	you	.	.	.	.	.	.
=80	=80	=80	=80	=80	=80	=80	=80
8b-	skate-	1E-M	.	voice	.	145.466	E-:maj
8b-	-board	.	.	.	.	.	.
8b-	with	.	.	.	.	.	.
4ee-	me?	.	.	.	.	.	.
8cc	_	.	.	.	.	.	.
4b-	_	.	.	.	.	.	.
=81	=81	=81	=81	=81	=81	=81	=81
*>Label>>Fadeout	*>Label>>Fadeout	*>Label>>Fadeout	*>Label>>Fadeout	*>Label>>Fadeout	*>Label>>Fadeout	*>Label>>Fadeout	*>Label>>Fadeout
4r	.	2B-M	newline	voice	.	147.211	B-:maj
8b-	Grab	.	.	.	.	.	.
8b-	your	.	.	.	.	.	.
4b-	board	2G-M	.	voice	.	148.084	G-:maj
8b-	and	.	.	.	.	.	.
8b-	go	.	.	.	.	.	.
=82	=82	=82	=82	=82	=82	=82	=82
4cc	side-	2A-M	.	voice	.	148.957	A-:maj
4b-	-walk	.	.	.	.	.	.
8g-	sur-	2B-M	.	voice	.	149.83	B-:maj
8g-	-fin'	.	.	.	.	.	.
8f	with	.	.	.	.	.	.
8e-	me	.	.	.	.	.	.
=83	=83	=83	=83	=83	=83	=83	=83
8b-	Skate-	1E-M	.	voice	.	150.704	E-:maj
8b-	-board	.	.	.	.	.	.
8b-	with	.	.	.	.	.	.
[8ee-	me	.	.	.	.	.	.
8ee-]	_	.	.	.	.	.	.
8g	Why	.	.	.	.	.	.
8a-	don't	.	.	.	.	.	.
8a	you	.	.	.	.	.	.
=84	=84	=84	=84	=84	=84	=84	=84
8b-	skate-	1E-M	.	voice	.	152.45	E-:maj
8b-	-board	.	.	.	.	.	.
8b-	with	.	.	.	.	.	.
4ee-	me?	.	.	.	.	.	.
8cc	_	.	.	.	.	.	.
4b-	_	.	.	.	.	.	.
=85	=85	=85	=85	=85	=85	=85	=85
4r	.	2B-M	newline	voice	.	154.196	B-:maj
8b-	Grab	.	.	.	.	.	.
8b-	your	.	.	.	.	.	.
4b-	board	2G-M	.	voice	.	154.958	G-:maj
8b-	and	.	.	.	.	.	.
8b-	go	.	.	.	.	.	.
=86	=86	=86	=86	=86	=86	=86	=86
4cc	side-	2A-M	.	voice	.	155.72	A-:maj
4b-	-walk	.	.	.	.	.	.
8g-	sur-	2B-M	.	voice	.	156.481	B-:maj
8g-	-fin'	.	.	.	.	.	.
8f	with	.	.	.	.	.	.
8e-	me	.	.	.	.	.	.
=87	=87	=87	=87	=87	=87	=87	=87
8b-	Skate-	1E-M	.	voice	.	157.243	E-:maj
8b-	-board	.	.	.	.	.	.
8b-	with	.	.	.	.	.	.
[8ee-	me	.	.	.	.	.	.
8ee-]	_	.	.	.	.	.	.
8g	Why	.	.	.	.	.	.
8a-	don't	.	.	.	.	.	.
8a	you	.	.	.	.	.	.
=88	=88	=88	=88	=88	=88	=88	=88
8b-	skate-	1E-M	.	voice	.	158.767	E-:maj
8b-	-board	.	.	.	.	.	.
8b-	with	.	.	.	.	.	.
4ee-	me?	.	.	.	.	.	.
8cc	_	.	.	.	.	.	.
4b-	_	.	.	.	.	.	.
r;	.	1r;	.	r	.	160.291	N.C.
r;	.	1r;	.	r	.	162.38	N.C.
*-	*-	*-	*-	*-	*-	*-	*-
!!!BillboardChartDate: 1964/12/12
!!!BillboardPeak: 25
!!!BillboardWeeksOnChart: 8
!!!COC: Jan & Dean
!!!ENC: Nathaniel Condit-Schultz
!!!EST: Awating manual error checking and editing.
!!!OTL: Sidewalk Surfin'
!!!RDF**chordsym: original McGill chord annotation + (implied pitch class set, with bass pitch in first position)
!!!RDF**harmony: **recip + pitch class of root + harmonic quality
!!!RDF**leadinstrument: original McGill primary instrumentation annotation
!!!RDF**phrase: newline = linebreak in original McGill transcription
!!!RDF**timestamp: McGill audio timestamp in seconds
!!!RDT: 2017/01/12/
!!!SampleActualRank: 25
!!!SampleID#: 1272
!!!SampleTargetRank: 25
